build/img/img-works-1.svg

<?xml version="1.0" encoding="UTF-8"?>
<svg width="61px" height="55px" viewBox="0 0 61 55" version="1.1" xmlns="http://www.w3.org/2000/svg" xmlns:xlink="http://www.w3.org/1999/xlink">
    <!-- Generator: Sketch 47.1 (45422) - http://www.bohemiancoding.com/sketch -->
    <title>works-1</title>
    <desc>Created with Sketch.</desc>
    <defs></defs>
    <g id="Symbols" stroke="none" stroke-width="1" fill="none" fill-rule="evenodd">
        <g id="works-1" fill-rule="nonzero" fill="#FFFFFF">
            <path d="M55.6384577,22.9233586 C54.9672561,22.9038129 54.2980667,23.0062482 53.6632243,23.2257149 C52.9257234,21.4179965 51.292627,20.1343372 49.3664503,19.8483306 C48.5035698,19.729981 47.6250519,19.8159039 46.8012121,20.099222 C46.1056269,18.375086 44.5876317,17.1210703 42.7673751,16.7668695 C41.687786,16.5623295 40.5719868,16.6832119 39.5608274,17.1142576 L39.2529988,5.33522766 C39.1864962,2.67479489 37.2265796,0.445718862 34.6035046,0.0472087618 C33.1033616,-0.153439719 31.588556,0.291266272 30.4329543,1.27156963 C29.2773527,2.25187298 28.5886109,3.67644849 28.5367163,5.19369917 L27.7735579,33.0619447 C27.4684945,32.8729365 27.1992532,32.6311698 26.9783341,32.3478692 L24.8299471,28.6552623 C23.0642909,25.6524507 19.6725283,24.0083624 16.2299861,24.4866051 C15.0274039,24.6467885 13.9782536,25.385192 13.4189311,26.4650564 C12.8596086,27.5449209 12.8603995,28.8305482 13.4210503,29.9097194 L21.6682911,45.8702727 C22.3991831,47.2712006 23.5110162,48.4355774 24.8748388,49.2283577 L25.0608186,49.3184213 L29.1844389,51.0360625 L29.3062877,51.0810943 C30.0515423,51.3267438 30.6397655,51.907286 30.8967354,52.6507738 L31.3456521,53.8794984 C31.6343133,54.7197617 32.5473678,55.1661931 33.3850164,54.8766309 C34.2226651,54.5870687 34.6677074,53.6711643 34.3790462,52.830901 L33.9493689,51.5828771 C33.3706765,49.9056303 32.0524033,48.5903647 30.3772747,48.0189325 L26.4075686,46.3656224 C25.5945877,45.8866233 24.9289122,45.1921599 24.48364,44.3584912 L16.2812909,28.4236702 C16.2047821,28.2753585 16.204766,28.0990289 16.2812475,27.950703 C16.357729,27.8023772 16.5011994,27.7004964 16.6660766,27.6774291 C18.80361,27.3998575 20.9009661,28.4239928 22.001772,30.2828399 L24.2014638,34.0590772 C24.2323403,34.1147504 24.2666085,34.1684615 24.3040733,34.2199051 C25.7021281,36.0790747 28.1519306,37.2692006 30.1592294,35.9504125 C30.592099,35.6633995 30.8597338,35.1839885 30.8774961,34.6637899 L31.7111985,5.32879454 C31.7245593,4.70756164 32.0037936,4.12214337 32.4776451,3.72192986 C32.9514965,3.32171635 33.5741281,3.14542138 34.1866534,3.23803281 C35.2516446,3.42120115 36.0341267,4.34145742 36.0464511,5.42529124 L36.4568892,20.8325969 C36.4792811,21.5976106 37.0360012,22.2408227 37.7879415,22.3704415 C38.5398819,22.5000602 39.278719,22.080175 39.5544143,21.3665453 C39.9557842,20.3066093 41.0631489,19.6940241 42.1709572,19.9190948 C43.2914835,20.1824673 44.0702861,21.2034587 44.0307549,22.3572447 L44.0307549,22.7818301 C44.0297973,23.453808 44.4454266,24.0555496 45.0729552,24.2907111 C45.7004837,24.5258727 46.4076152,24.3448771 46.8461038,23.8368607 C47.3496307,23.2110466 48.1421201,22.8940368 48.9367729,23.000556 C50.1062915,23.2103699 50.946446,24.2474233 50.9120063,25.4387058 L50.9120063,25.850425 C50.9110487,26.5224029 51.3266781,27.1241445 51.9542066,27.359306 C52.5817351,27.5944676 53.2888666,27.413472 53.7273552,26.9054556 C54.1787717,26.3705659 54.8505609,26.0739611 55.5486743,26.1013165 C56.8429994,26.2037366 57.8285484,27.3085041 57.7868447,28.6102305 L57.7868447,41.2834632 C57.7868447,45.143331 55.324216,48.0832636 54.2660553,49.1704597 C53.6041913,49.8477717 53.0984986,50.6624799 52.7846302,51.5571446 L52.3228873,52.8437672 C52.1292828,53.3861731 52.2388544,53.990986 52.6103277,54.4303787 C52.9818011,54.8697715 53.5587404,55.0769899 54.1238183,54.9739768 C54.6888962,54.8709637 55.1562638,54.4733692 55.3498684,53.9309633 L55.8116113,52.6443407 C55.973311,52.1927469 56.2316058,51.7821377 56.5683565,51.4413486 C58.2229352,49.7430068 60.9998055,46.1661959 60.9998055,41.3091956 L60.9998055,28.6423961 C61.024671,25.6046635 58.6625524,23.084953 55.6384577,22.9233586 Z" id="Shape"></path>
            <path d="M23.9999922,8.66706566 C24.0008222,7.85218672 23.6843621,7.07064118 23.1207869,6.49573731 L20.628651,3.90310644 C19.4529789,2.69896452 17.5474513,2.69896452 16.3717793,3.90310644 L9.98963424,10.4689441 L7.63032791,8.05131583 C6.45465584,6.84717391 4.54912822,6.84717391 3.37345615,8.05131583 L0.88132024,10.6050572 C-0.293773413,11.8097919 -0.293773413,13.762424 0.88132024,14.9671587 L7.8390601,22.0968936 C9.01473217,23.3010355 10.9202598,23.3010355 12.0959319,22.0968936 L23.1207869,10.8448756 C23.6853247,10.2679798 24.0018066,9.48404764 23.9999922,8.66706566 Z M9.98963424,19.7181547 L3.22797614,12.7828672 L5.50505464,10.4494994 L8.87639586,13.8976984 C9.17306207,14.2024677 9.57587877,14.3737501 9.99595946,14.3737501 C10.4160402,14.3737501 10.8188568,14.2024677 11.1155231,13.8976984 L18.4970525,6.33369788 L20.774131,8.66706566 L9.98963424,19.7181547 Z" id="Shape"></path>
        </g>
    </g>
</svg>

<svg width="61" height="55" viewBox="0 0 61 55" xmlns="http://www.w3.org/2000/svg"><title>works-1</title><g id="Symbols" fill="none" fill-rule="evenodd"><g id="works-1" fill-rule="nonzero" fill="#FFF"><path d="M55.638 22.923a5.55 5.55 0 0 0-1.975.303 5.518 5.518 0 0 0-4.297-3.378 5.563 5.563 0 0 0-2.565.251 5.48 5.48 0 0 0-4.034-3.332 5.544 5.544 0 0 0-3.206.347l-.308-11.779a5.482 5.482 0 0 0-4.65-5.288 5.35 5.35 0 0 0-4.17 1.225 5.384 5.384 0 0 0-1.896 3.922l-.763 27.868a3.037 3.037 0 0 1-.796-.714l-2.148-3.693a8.604 8.604 0 0 0-8.6-4.168 3.72 3.72 0 0 0-2.811 1.978 3.742 3.742 0 0 0 .002 3.445l8.247 15.96a8.352 8.352 0 0 0 3.207 3.358l.186.09 4.123 1.718.122.045a2.518 2.518 0 0 1 1.59 1.57l.45 1.228a1.603 1.603 0 0 0 2.039.998 1.61 1.61 0 0 0 .994-2.046l-.43-1.248a5.742 5.742 0 0 0-3.572-3.564l-3.97-1.653a5.14 5.14 0 0 1-1.923-2.008L16.28 28.424a.516.516 0 0 1 .385-.747 5.394 5.394 0 0 1 5.336 2.606l2.2 3.776c.03.056.065.11.102.16 1.398 1.86 3.848 3.05 5.855 1.731.433-.287.7-.766.718-1.286l.834-29.335a2.164 2.164 0 0 1 .767-1.607 2.15 2.15 0 0 1 1.709-.484 2.243 2.243 0 0 1 1.86 2.187l.41 15.408a1.603 1.603 0 0 0 3.098.534 2.307 2.307 0 0 1 2.616-1.448 2.418 2.418 0 0 1 1.86 2.438v.425a1.608 1.608 0 0 0 1.042 1.509 1.6 1.6 0 0 0 1.773-.454 2.292 2.292 0 0 1 2.09-.836 2.404 2.404 0 0 1 1.976 2.438v.411a1.608 1.608 0 0 0 1.042 1.51 1.6 1.6 0 0 0 1.773-.455 2.267 2.267 0 0 1 1.822-.804 2.435 2.435 0 0 1 2.238 2.51v12.672c0 3.86-2.463 6.8-3.52 7.887a6.488 6.488 0 0 0-1.482 2.387l-.462 1.287a1.617 1.617 0 0 0 .287 1.586 1.605 1.605 0 0 0 2.74-.499l.462-1.287c.161-.451.42-.862.756-1.203C58.223 49.743 61 46.166 61 41.31V28.642a5.673 5.673 0 0 0-5.362-5.719zM24 8.667a3.1 3.1 0 0 0-.88-2.171l-2.49-2.593a2.96 2.96 0 0 0-4.257 0L9.99 10.47 7.63 8.05a2.96 2.96 0 0 0-4.257 0L.881 10.605a3.14 3.14 0 0 0 0 4.362l6.958 7.13a2.96 2.96 0 0 0 4.257 0L23.12 10.845c.564-.577.88-1.361.879-2.178zM9.99 19.718l-6.762-6.935 2.277-2.334 3.371 3.449c.297.304.7.476 1.12.476.42 0 .823-.172 1.12-.476l7.381-7.564 2.277 2.333L9.99 19.718z" id="Shape"/></g></g></svg>
